images/eurs_e40bdb.svg

<svg height="432" width="430" xmlns="http://www.w3.org/2000/svg"><path d="m0 198h55c-1 6-1 12-1 18s0 12 1 18h-39l-16 36h61c25 92 110.5 162 209 162 54.5 0 105.5-21.5 144-56.5v-52c-33 44-85.5 72.5-144 72.5-80 0-148.5-53-171.5-126h243.5l16-36h-267c-1-6-1-12-1-18 0-5 0-12 1-18h283l16-36h-291.5c22.5-72 90.5-126 171.5-126 63 0 111 28.5 144 72l16-35.5c-40-44.5-97-72.5-160-72.5-99 0-184.5 71-209 162h-45z" fill="#fff"/></svg>

<svg xmlns="http://www.w3.org/2000/svg" width="430" height="432"><path style="fill:#FFFFFF" d="M0,198L55,198C54,204 54,210 54,216C54,222 54,228 55,234H16L0,270H61C86,362 171.5,432 270,432C324.5,432 375.5,410.5 414,375.5L414,323.5C381,367.5 328.5,396 270,396C190,396 121.5,343 98.5,270H342L358,234H91C90,228 90,222 90,216C90,211 90,204 91,198H374L390,162H98.5C121,90 189,36 270,36C333,36 381,64.5 414,108L430,72.5C390,28 333,0 270,0C171,0 85.5,71 61,162H16Z"/></svg>
